/* XPM */
static char *ae3d8918d6e845da893167a8b6913f07KjF5TS6srC3B6teI[] = {
/* columns rows colors chars-per-pixel */
"64 64 174 2 ",
"   c #000E1D",
".  c #01131D",
"X  c #01181F",
"o  c #030E20",
"O  c #011623",
"+  c #0A1624",
"@  c #021B25",
"#  c #011629",
"$  c #031C2A",
"%  c #0A1D2C",
"&  c #101E2B",
"*  c #0E1F31",
"=  c #062027",
"-  c #05222C",
";  c #0A232E",
":  c #042433",
">  c #0B2532",
",  c #042936",
"<  c #0C2A35",
"1  c #062639",
"2  c #0C273C",
"3  c #052C3B",
"4  c #0C2D3B",
"5  c #112633",
"6  c #122A36",
"7  c #122D3B",
"8  c #1A2E3D",
"9  c #07313E",
"0  c #0D323D",
"q  c #15323E",
"w  c #19323D",
"e  c #0E2F41",
"r  c #122D41",
"t  c #073544",
"y  c #0C3443",
"u  c #0B3945",
"i  c #0D3948",
"p  c #133443",
"a  c #1A3542",
"s  c #153946",
"d  c #1A3A45",
"f  c #143648",
"g  c #1F3648",
"h  c #143B4A",
"j  c #1B3D4B",
"k  c #1D3F52",
"l  c #223D4B",
"z  c #283F4D",
"x  c #253F50",
"c  c #14414E",
"v  c #1D414D",
"b  c #164251",
"n  c #1D4453",
"m  c #1E4A56",
"M  c #1C4758",
"N  c #1E4B5B",
"B  c #1F505E",
"V  c #23434E",
"C  c #234553",
"Z  c #2A4554",
"A  c #244A56",
"S  c #294B56",
"D  c #224759",
"F  c #244D5C",
"G  c #294D5C",
"H  c #314455",
"J  c #314C5B",
"K  c #25515E",
"L  c #2B515D",
"P  c #32525E",
"I  c #38505C",
"U  c #34595F",
"Y  c #1E4F60",
"T  c #1E5061",
"R  c #244E61",
"E  c #294E61",
"W  c #255161",
"Q  c #295465",
"!  c #2B5667",
"~  c #2B5565",
"^  c #2F5564",
"/  c #2D5765",
"(  c #2C5664",
")  c #2E5566",
"_  c #2B5362",
"`  c #2F5967",
"'  c #2F5B66",
"]  c #2D5965",
"[  c #265668",
"{  c #2C5669",
"}  c #26596A",
"|  c #2F5969",
" . c #2D5E6C",
".. c #2E5F6D",
"X. c #2E5B6A",
"o. c #315561",
"O. c #305661",
"+. c #315762",
"@. c #335662",
"#. c #345662",
"$. c #305567",
"%. c #335767",
"&. c #325563",
"*. c #395563",
"=. c #315963",
"-. c #325865",
";. c #345A65",
":. c #365A66",
">. c #375B67",
",. c #335965",
"<. c #385F66",
"1. c #325769",
"2. c #335868",
"3. c #335A69",
"4. c #32596A",
"5. c #355B68",
"6. c #34596B",
"7. c #345B6A",
"8. c #345E6A",
"9. c #315C6C",
"0. c #335D6D",
"q. c #335E6E",
"w. c #375C6C",
"e. c #375C6E",
"r. c #345E6E",
"t. c #335C6B",
"y. c #385968",
"u. c #395A69",
"i. c #3B5D69",
"p. c #3B5F6B",
"a. c #395F6C",
"s. c #385F6E",
"d. c #395E6E",
"f. c #3C5D6C",
"g. c #3A5E6E",
"h. c #2C5F70",
"j. c #315E71",
"k. c #2F616A",
"l. c #30616F",
"z. c #36606C",
"x. c #32616C",
"c. c #39606F",
"v. c #3D616D",
"b. c #3C606C",
"n. c #3E626E",
"m. c #3A616E",
"M. c #316270",
"N. c #356070",
"B. c #356372",
"V. c #396071",
"C. c #3A6170",
"Z. c #3B6271",
"A. c #3A6172",
"S. c #3B6273",
"D. c #3C6171",
"F. c #3F6071",
"G. c #3A6472",
"H. c #3D6473",
"J. c #3C6374",
"K. c #3D6775",
"L. c #3F6675",
"P. c #3B6573",
"I. c #3E6876",
"U. c #3D6975",
"Y. c #396679",
"T. c #3C6A79",
"R. c #426672",
"E. c #406775",
"W. c #456975",
"Q. c #406A7A",
"!. c #426B7B",
"~. c #42707F",
"^. c #3D7081",
"/. c #447281",
/* pixels */
": y h p y p p p h h j b v c c c h b b b b b h i y 4 p > $ O : : < 4 4 4 4 4 4 3 r r 4 4 2 2 2 2 y y y 4 4 0 0 p 0 4 0 4 s d d : ",
"F $.6.$.$.y.y.f.e.d.D.H.K.K.K.I.0.B.B.0.0.0.0.| ` 4.D.Z 4 < C L L _ +.=.6.d.V.H.J.V.V.V.V.V.V.V.V.m.d.d.d.a.n.n.E.n.n.a.a.#.S q ",
"4.e.$.G G F A S F G G _ ( ( ( ( W W W F F W W F W F ( j 1 y +.=.A A A A F W ~ ~  . . . . .l.M.M.4.4.6.6.6.:.:.:.:.+.+.L +.G j : ",
"V.V._ F G F A F F F A A F F A m A F F F N F F F [ N K j 4 h z.K F F F N R R R W N N N N N N N B A A A F F A A A G F G F L L j 4 ",
"0.V.E A G F G G G F F F F F A m N F F F F F F F K F | n 1 y 8.K F F R R W W W W F W W W W W W W F F F F F G G G L F L F G G p , ",
"e.Q.~ F L F F A G F F F F F F F N F _ W F W R F N F ( n 1 y G.` N A F R W W R R E E E E E G G F F F F A F G G G G L _ G G _ y : ",
"_ T.( A G F G A A F F F F F F F N F _ W F F F F F F F h 1 4 6.G F F F W W W R F _ _ _ _ _ F F F G G G G L G G G A F _ F A F 4 1 ",
"F Q.| F L F G A F F G F F F F K A W _ W F F F F W _ E k 4 y 6.( F F F F F W W W W W W W W F F N F F F G G G S G K L G n k n : : ",
"F Y.1.D E G F F S S S A A S L L _ _ R F E E F W A _ G S 4 4 6.` F F F F F R R E K F F F F F F F F G G G G G G L G G A A G A q > ",
"| Y._ D G F F F F F F F F L L _ E E F A F F A F N F F G e 1 ( ` F F F F F R F E R F F F R F F F F F L L G F A A C A F A F A p > ",
"B.B.F D F G K F F F F F F _ _ W _ _ E F F F F W F F _ _ p 3 ( ` A A A F F F F F N N F F N N N N L L L L L L F F E E _ W _ F p 1 ",
" .! F F G F K m F W R F F ~ _ F F L G F A N F K K K L L 0 9 / ' A A A F F F F F N N F F F F F R L F A F F L L L _ F F N W F y : ",
"! W F G G F L K W _ _ W _ ( ~ W G L L G A A F L K L L D 1 y =.` F F F F L L F F F F R F F F E _ L G F G L L L L _ F F F W F f 1 ",
"| ` G G S A L L G G G L L L G G G S G G C C G G L L L C 4 d :._ S A S S G G S C D F G G F F S G S G L P P L S A G G =.( F C p > ",
"_ _ C g g a j v d d d j j d d d a a a a q q a a j j C l < p S C a a a a d d a q q d l l d a q q q a l l l a q 7 q p v d 0 4 - $ ",
"j j 7 : > - - $ > - > < < - - < 6 > 5 5 ; ; < < , : 7 a % : p 4 ; ; % ; > > ; $ $ ; 6 6 > ; @ @ - > < 6 < : % $ $ @ : - - - - $ ",
"h h h i i u u i t t 9 3 1 1 , , : : O : p h 9 9 0 s d s 0 3 3 y h s y y 9 y y s p y u 3 : # # y i i 3 , 3 t t i i y h h i i i i ",
"K.K.K.Y.G.B.B.B.G.G.V.e.6.6.2.%.S j 4 _ H.m.m.!.W.W.W.E.m.d.H.Q.E.H.V.m.m.V.H.K.n.H.B.` S 7 4 ` /.~.Y.M.Y.T.T.Y.T.Q.!.!.!.Q.Q.Q.",
"8.9.9.9.| ` ! ~ ` ` 4.6.6.d.d.f.o.p 4 $.y.L L a.+.+.+._ L _ ( 4._ _ _ _ _ _ ( ( o.( K K L a p G.B.B.e.B.T.Q.V.0.| | 4.4.4.4.4.4.",
"_ ( _ ( _ K K F A F F F G G G G S p p :.+.G L L G G G G G F F F G F F F F F F F S n c m A 7 0 8.N N A F W _ F F F F F F F L _ _ ",
"_ _ _ _ _ L K F G G G _ _ _ _ _ v 4 0 +.G G +.G L G L L L _ F F F G G G F F F A G F K L j : p 8._ W F F A F W _ F F F F L _ _ ( ",
"$.$.$._ _ ( _ K F F G G _ _ _ _ A 4 4 :.P S P P L L G G G F F F G G G G G A A A A n m K p : j 8.F A F F A N F F G G F G L _ _ +.",
"_ _ _ _ _ L K F o.o._ _ _ _ K K C , < #.P G P *.L L G F F F G F G G G G G G G G G F M F d > j m.F N F W F F W F G F F G L _ _ _ ",
"_ _ _ _ _ L K F G G E _ _ _ W K v 4 0 #.#.P P J L L L L L _ L L A G S G G G G G A K m F s # p I.e.W N A N F _ W G F F G L _ _ L ",
"L L L L L L L L G J G L L K L ( V - < U P S P I _ L F G L L G L S S G L L S S S S A A S g $ 4 K.!.K m K F F F A G F F F F F K K ",
"F F F F F F F G S G G G F K K Q Z < 0 <.#.L L S _ L G L L _ L L L F F S S S S S S A A G x > p U.V.F m F F F F A G G F F F F K W ",
"F F F F F F W W G E _ _ _ _ ~ ~ z > < :.,.( ( F W _ _ _ _ _ L L _ _ L G F F F F S n m G l > y B.| F A F A F W N F F F A A A F F ",
"F F F F F F F F G F G F W _ _ ~ Z > < =.9.K W W _ _ _ _ _ L G F F E _ _ _ F F A G m m F g : y k.F N F F M N F N F F F F F F F F ",
"F F F F F F E E L L L L _ _ _ _ H 6 4 a.z.Q W ~ $.$.1.$.$._ L L G _ _ _ _ _ G F G S F A a : p x.F F W F A F F A G G E _ _ E F F ",
"C C C C C C C C C C C C C C C C a > < +._ F A A A S S Z C V V V C C C C C C C C l v v j 7 > p L C C D D n n C n j V C C C n v j ",
"> > > > > > > > > > ; ; > > > > 6 ; > d q 4 < > > > > ; - - ; ; > > > > > > > > > < < < % % < p < < > < < < < < < < < < < < < < ",
"@ @ @ @ @ @ @ @ @ @ @ @ @ @ @ @ @ = @ - . @ % O @ @ @ X . . X @ . O @ @ $ @ @ O @ @ $ $ % % $ - @ @ . @ @ @ @ $ $ @ @ @ @ @ @ @ ",
"k b c v 7 O p n v b n n n v v v C n n n n m m N n A n b h h j h > @ h N [ N N m A N A A A A F F F A n n b b c c d h h h v n n n ",
"6.| ( G a % j A ( ( ( $.$.+.+.+._ _ _ ( $.9.e.z.9.V.9.6.4.( $.G 6 < ` T.^.T.V.H.9.9.9.9.e.e.e.e.B.B.e.j.0.0.0.l.=.=.=.4.6.e.B.B.",
"_ W K A a % V _ F F G G G G G G G F F F F K K _ K ( K L G F F j - : $.Y.h.W A F F F F F F F F F F F F F F F K W A A F F F F W W ",
"F F F C 7 $ j K F F G L L G G G _ _ L G G G G K K _ K _ _ G F h ; < 4.0.[ N N F F F F F F F G G F F F F F F F F A A F F F F F W ",
"E F K A 7 # j F A A F F F F G G F F F F G L _ _ K K F F F G F p - < _ ~ T N F G F F F F F F F F E F R F F F A N A F F F F F F W ",
"F A K C 6 # V F F F F W L _ _ L W _ _ _ _ _ _ _ _ _ F G F G G p ; < _ ~ W N F F F F F G F F G G F E E R R F F F F F F F F F F F ",
"_ W Q A 6 $ C K N N F F F F F F K K K F F G G G _ _ K _ F _ G p @ < ( ~ W W E G F F F G G G G G F F F F F F F F F F A A F F F F ",
"E F K v < # A ( F F R W W W G G K K K K _ _ _ &.F K K _ F G G y @ < $.~ N N F G F F F F G F G G E E E E F F F F L F F A F F F F ",
"[ W _ v 4 : n _ F F N F R W R F E _ E R E _ _ E Q R F E F E E h % > *.+.F F F E S S A A A F L L W R F F F F G G K A m m F K K F ",
"Q R F h : $ n _ F F F F F F F F F W _ _ _ ~ ( ( W R F W F L _ j % > %._ K K F F F F F G F F F F W R F F F G G G K F F F N F F N ",
"R R _ v < - n ( N F F F F F F W F W ~ ~ _ _ ~ ~ W F F F F L _ v % > P L K K F F F F F F F F W W W R F F K L L F K K F N R W W [ ",
"R E L j < - n ( F F F F F F K K F G _ L G F F F F F F K F L _ C $ : L K K K F G R R R R F F R R F F F F F F F S W W F F F N R W ",
"_ _ S d < - j G _ G A A A A D n A D D F G G F F A F F L G G L C > q P L L L L +.F F E _ _ _ _ E K F F F L L G S G G F F F W _ _ ",
"h h d q < $ p j p p 4 4 4 4 4 < < > < 7 p a a a p p q p a q a 7 - < V d d s j g d j p p p p p j v j d j v j j j d d d d j j j j ",
": : - - ; @ : : @ @ # @ O O O O O O @ $ @ O O $ $ $ @ @ @ O @ @ @ @ > - : - % $ < > - $ @ @ $ $ > : : - - ; ; ; ; ; - - - - $ @ ",
"y 4 - @ - @ : , 6 8 a 8 5 > > 6 8 a a 8 > $ % > 6 7 > > > % 5 5 6 5 6 > 7 7 6 * @ $ 6 w a a a w > : % % ; ; ; ; X @ @ = ; > < > ",
"B.j.{ Q N R Q { B.M.0. . . . . .1.~ Q ( j % < v L L L ( 9.e.B.e.0.0. .| 0.e.e.9.W  .B.B. .! / / $._ F F K G A 4 @ - h K [ [ [ X.",
"j.j.B.Y.Y.Y.Y.B.{ ~ ~ Q Q Q [ [ _ F N F a $ 7 A 8.=.=.` 4.| | | ~ { ~ ~ ~ ~ ( _  .B.B.9.( K K K _ $.( =.4.$.F 4 @ 7 L  .} } [ { ",
"N F F R W W R F F F F F A F F F F N N A p # 7 A L L F F F F F F K W W F F F F F A F R F A F G L G G F F F F A e . < L  .T Y F F ",
"_ W F F N F F F F F D A A F F F D N N F 7 O < v A F F F F W W W W Q Q F F F F F n A F F G G G G F G m m m F G j . > G  .T N W _ ",
"R F F R R R F N D F F F F F F G F F K F 7 O 7 V L L _ _ _ _ _ W ~ ~ _ R F F F F D F G G G G S A F F F F F _ E j @ $ A B.[ R ~ { ",
"F F R W W W F F D F A A F F F F E F K A < # q S F G L _ _ _ E F ~ { ~ F F F F F D A F F G G G S D F F N N F D p . . v B.[ N F F ",
"_ W W F F F F F A A F A F F F A E N N m 4 # a A A G L _ _ _ ( ( _ ~ _ E F F F n W _ W G L L L F F K F N N F A y . . C Y.[ N W R ",
"A F F F F A A A A F F F F F F F F N N A < O q v F G L _ _ _ _ ( _ ~ _ _ E G A n n A F F K L F A A K F K F F A y . O A V.R N ~ _ ",
"G G F F A A F F F A A F F F A F F m A A 6 @ a A A A S G L o.L G _ _ _ _ E F A M A F L L L G F G A G L L A A S p o % L / K K G G ",
"F F F A A A A F K F F K F F A F F n m D < # q m F F G _ _ ( _ _ W W W W W F F F b n F K K F F F F L _ K N F G f O ; P L K K L G ",
"F F F F F F F F F F F F F A A A E N N F r $ p F A F F W _ _ W F F F N N N N F F b M F W W W W W F F N N M N F f O 6 +.L m N G F ",
"F F F F F F F R N F F F F F F F R N N F 7 # 4 m F F W _ ~ _ W R W W W W W W W W N N F W W W F N R W N N N F F h . < L S A A F A ",
"G E E E G G E E A F F F F G E E E F K F r # 4 A A F F F F F F A F F F W F F F F W W W R W W W F A F N N N F F j . < G G L L P G ",
"C C C C C C C C D A F A A A Z A F F A A 8 % 7 v A A F F A A C C A S S S S S C C C C j v C C C C C A C A F A Z g @ 7 Z V Z C Z l ",
"; > > > > > > > q q a q q q w w 7 0 4 7 5 + ; < > > > > ; ; ; ; ; ; ; ; ; ; ; ; ; - $ - ; > > > % > ; > > > 5 % @ ; 5 ; 6 > > : ",
"O @ @ @ @ @ @ @ @ @ - @ @ @ % % @ @ @ - & + @ @ @ @ @ O O . O O . . . . . . . . . . . . O O O . . O . O @ O + . O O O   O O % @ "
};
