/* XPM */
static char *feb6a27cded944ea9bbac1a2a414a567hEPHqUlqV66ipZv8[] = {
/* columns rows colors chars-per-pixel */
"64 64 181 2 ",
"   c #2E0200",
".  c #340301",
"X  c #3C0001",
"o  c #3A0309",
"O  c #31080E",
"+  c #440102",
"@  c #4B0102",
"#  c #47040B",
"$  c #4B020A",
"%  c #480A0B",
"&  c #530103",
"*  c #5B0103",
"=  c #550409",
"-  c #5C030B",
";  c #56080D",
":  c #5C090E",
">  c #5C0410",
",  c #570A10",
"<  c #5B0B12",
"1  c #5B1219",
"2  c #630104",
"3  c #6B0205",
"4  c #65030A",
"5  c #6B030B",
"6  c #640A0B",
"7  c #6D0A0D",
"8  c #710006",
"9  c #72050C",
"0  c #79050D",
"q  c #74090E",
"w  c #79080E",
"e  c #670512",
"r  c #6C0512",
"t  c #640B14",
"y  c #6C0C12",
"u  c #6D0D19",
"i  c #720512",
"p  c #7C0410",
"a  c #740C12",
"s  c #7B0C13",
"d  c #720C1A",
"f  c #7D0D19",
"g  c #6C1212",
"h  c #6D1218",
"j  c #721011",
"k  c #7D1116",
"l  c #74141B",
"z  c #7C1419",
"x  c #7C1B1D",
"c  c #7C1B22",
"v  c #830614",
"b  c #820C15",
"n  c #890D17",
"m  c #830E1A",
"M  c #8D0E1C",
"N  c #821017",
"B  c #84131A",
"V  c #8B141D",
"C  c #85191E",
"Z  c #8B1A1F",
"A  c #91141F",
"S  c #951A1F",
"D  c #861621",
"F  c #8E1521",
"G  c #831C23",
"H  c #8D1C23",
"J  c #8B1E28",
"K  c #931523",
"L  c #9A1624",
"P  c #941D25",
"I  c #991C26",
"U  c #981729",
"Y  c #961E28",
"T  c #9A1E29",
"R  c #9D1E31",
"E  c #A21F2B",
"W  c #862423",
"Q  c #8E2125",
"!  c #87232B",
"~  c #8F2329",
"^  c #8F2829",
"/  c #932126",
"(  c #992027",
")  c #952229",
"_  c #9A222B",
"`  c #95292D",
"'  c #9A282E",
"]  c #962731",
"[  c #9E2631",
"{  c #962A32",
"}  c #9E2B32",
"|  c #9D2930",
" . c #9B2D33",
".. c #9D2C32",
"X. c #9E2D33",
"o. c #9A2B34",
"O. c #9E2A35",
"+. c #9D2E34",
"@. c #9F2E34",
"#. c #9D2A32",
"$. c #993037",
"%. c #9D3036",
"&. c #9E3136",
"*. c #9E3036",
"=. c #97313C",
"-. c #A0222E",
";. c #A1232F",
":. c #A4212F",
">. c #A1252F",
",. c #A1232D",
"<. c #A62333",
"1. c #A32632",
"2. c #A92231",
"3. c #A82334",
"4. c #A02B33",
"5. c #A62A35",
"6. c #A72937",
"7. c #A72B36",
"8. c #A02D34",
"9. c #A22F36",
"0. c #A02F35",
"q. c #A62D36",
"w. c #A62E37",
"e. c #A42F37",
"r. c #A32B34",
"t. c #A82C37",
"y. c #A82B35",
"u. c #A62E38",
"i. c #A92D38",
"p. c #AA2E39",
"a. c #AB2F3A",
"s. c #AB2D3A",
"d. c #B02C37",
"f. c #A13036",
"g. c #A33037",
"h. c #A33037",
"j. c #A83137",
"k. c #A33139",
"l. c #A23038",
"z. c #A33238",
"x. c #A2303A",
"c. c #A43138",
"v. c #A53339",
"b. c #A5333B",
"n. c #A6333A",
"m. c #A1343A",
"M. c #A4353B",
"N. c #A1363C",
"B. c #A2373D",
"V. c #A7353D",
"C. c #A6343C",
"Z. c #A4373D",
"A. c #A5333A",
"S. c #AA313A",
"D. c #AB323B",
"F. c #AA323C",
"G. c #AC333C",
"H. c #A8353C",
"J. c #A8363E",
"K. c #AA373E",
"L. c #AA323C",
"P. c #A3383E",
"I. c #A6393F",
"U. c #A43A3E",
"Y. c #A6383E",
"T. c #A9393F",
"R. c #AD3642",
"E. c #A53C40",
"W. c #A63C40",
"Q. c #AC3940",
"!. c #AD3A41",
"~. c #AF3A42",
"^. c #AC3C42",
"/. c #B23A43",
"(. c #B03D44",
"). c #B33C44",
"_. c #B43548",
"`. c #B33A49",
"'. c #AF4047",
"]. c #AF4049",
"[. c #B24349",
/* pixels */
"2 q k q q q q s b N B B B B B B b B B B B B b s y 7 l 6 @ + * 4 4 4 4 4 4 4 5 5 6 6 6 6 6 6 6 6 a 7 5 5 5 7 i a q 9 9 0 s k q 2 ",
"P | @.| ..0.f.v.f.v.K.K.~.~.~.~.v.v.v.v.0.l.0.| $.o.l.G 6 6 G ~ ` ] |  .&.m.M.U.U.P.N.N.N.N.P.P.M.M.v.l.v.v.K.K.W.W.C.v.l. .G 9 ",
"4.e.| / / P P P / / / _ ' | | ' / _ ) / P / / P _ T <.V 3 a O.r.P P P P Y ( _ | y.r.7.y.p.p.p.p.r.r.r.r.r.r.y.y.@...| _ _ ) k 2 ",
"S.G._ P ( P P P P P P P P P P F P P P P P P / P -.T 2.A 9 B F.:.Y Y Y P Y Y Y Y L L L L I I I I I P P P I I I I / P Y P ( _ B 9 ",
"e.S.( P ( P P ( / P P P P P P F F P P P P P / P ( I -.V 3 a l.P P P / / / / / / ( ( ( ( ( ( Y Y / / P P P / / / ( P _ P Y / s 3 ",
"u./._ P ( P P P / P P P / / / P P / _ / / / P P P P _ C 3 y U.4.H H / / / / ) / / / / / / / P P / / / / / / ) ) ( P >.( ( ) a 2 ",
"_ ~._ P / P / P P P P P P P Y Y P ( _ ( P P P P / Y ( B 2 5 &._ P P / / / / / P / / / / / / P P / / / ( ( / / / P P _ P P ~ 9 2 ",
"/ (.| P / / / H P P Y P P P Y ( P Y _ ( P Y ( Y _ _ Y B 5 9 f._ L L Y Y T T _ _ Y ( ( ( ( P P P L Y Y _ _ T Y L / P ( V B C 3 * ",
"P K.| H / / P / / P P / ) / / | _ _ / P / / / / / _ P H 3 5 @.1.I P Y Y P Y Y Y P / Y Y Y Y L K P / / / / / ) _ / P K K Y P s 3 ",
"4.K._ F P P P P / P P / / / _ | / / P F P P P P H Y P / 9 3 ' >.P P H P P P P / / / / / / / / P P / / ( / P P P P P / P / H 9 2 ",
"S.S.Y P P Y ( P Y Y Y P Y ( ( ( ( _ ( Y Y Y P ( P P Y _ a 5 ' 1./ / ~ / ~ / / / / ~ ~ ~ ~ / ) ) _ _ _ _ _ ( Y P ` ) _ / ` ) a 2 ",
"r._ P P Y Y ( P Y Y Y Y ( _ _ ( ( ( ( Y P P P ( / Y T ( q 9 | 5.P H H P P P P P P P P P P / / / ( P P P P ( ( ( _ P P P Y Y s 2 ",
"1._ P ( P P ( P _ _ ( _ _ _ _ _ ( _ _ ( P P ( _ / _ T F 3 a 0.5.Y Y Y Y Y Y Y Y I Y Y Y Y Y ( ( _ ( Y Y ( _ _ _ 4.T T T T Y s 3 ",
"0.4.( / P F / / ) / ) ` _ ) ) ) / / / / P P / / ) ( ( Z 5 z &.>.Y Y Y Y _ _ Y I L I I Y P P P F ) / ` ' ' ` ) P ( ( 5.1.U F s 3 ",
"` ` Z B b s B B B s k C C k k B N b N s w s b s B B V B 3 y ~ V s s s s s s s w v b m B B f a i s s B C B s q 9 a a B B a r 4 * ",
"s k 3 3 3 3 3 2 3 2 2 9 5 2 2 3 9 3 8 3 3 3 8 3 3 3 0 q * * q 8 2 2 2 2 2 2 2 * 2 3 5 5 4 * & & 2 3 5 5 3 2 2 2 * & * * & * & @ ",
"s s s s s s s s 7 7 7 5 4 2 2 2 - * + * a B 9 7 q s k s 0 3 3 9 k s s 0 9 0 q s s a s 9 2 @ @ d j j 3 2 3 7 7 q q a f f s a q q ",
"Q.Q.Q.T.T.K.K.M.U.M.M.l.l.@.@.@.J l e { R.D.u.^.^.(.(.Q.C.v.T.^.~.T.K.C.C.M.T.T.v.U.M.| H 6 4 { [.[.U.m.Q.^.Q.T.^.^.'.'.'.^.^.^.",
"e.e.0.0.4.| | | 5.r.r.r.p.p.D.D.[ f i 9.s.E E p.4.| | _ / ( | 0._ _ _ _ _ _ _ | | ] / _ ] h a R.D.D.p.D./.).G.y.| | O.O.0.0.@.0.",
">._ _ _ ( ( Y Y I Y Y Y Y _ _ _ U 0 9 [ -.L T ( Y ( ( ( Y Y ( Y P P Y Y P ( Y ( H C B L P 7 9 s.K K P Y _ _ Y P Y Y Y Y Y _ _ _ ",
"_ _ _ _ _ ( Y P / / ) _ _ _ _ _ F 9 i  ._ _ 4.` _ ( _ _ _ _ Y P P Y Y Y P P P P P H Y T B 2 s s._ / / P P P / _ Y P P Y ( _ _ _ ",
"| | | _ _ _ _ ( H / ) ) ` ` ` ` H 3 5 { ) P ) ^ _ _ ( Y Y Y P P Y Y ( ( Y P P P P Z P T b 2 z s.~ H ~ ) H H ~ ) Y Y P Y ( _ _ _ ",
"_ _ _ _ ( / / / _ _ ' ' _ _ / / K 8 5 &.4._ ' ` _ ( / P P / / / ( ( ( / / / / P L P V I N * z K./ F P / / / / / ( P P / ( _ _ _ ",
"_ _ _ _ _ ) / / Y _ _ _ >._ _ _ K 0 0 | >.,._ ) _ ) _ _ _ _ / / / / / / / / / P S ( K I s & g ^.p.Y K K K Y _ T / P P / ( _ _ _ ",
"_ _ ` / / / / / ` ` ` ` ` _ _ _ L 3 5 u.3._ | 1._ _ / / _ _ _ _ ` ` ) ) ) ) ) Y P H P U m * i _.].) J ) ) ~ ) H _ _ Y Y Y Y _ _ ",
"Y Y Y Y Y Y Y _ Y Y Y Y _ _ _ -.P 5 7 v.7._ _ / _ _ _ _ -.>.>.-.P P P P P Y P P P H P T D * a `.G.Y P Y P P Y P Y Y P P P P Y Y ",
"Y Y Y Y Y _ _ _ ( _ _ _ _ ,.-.>.V 2 6 @.e._ ` / _ _ _ _ _ _ _ _ ( ( ( ( ( Y Y Y H C F Y C * g R.4.P P ( P P ( P P P P P P P P P ",
"/ / / / P / / / / / / / / _ _ _ K 2 2 ..5.( / ( / / ) ) ) / / / / / / / / / P P / Z F Y N * 7 u.P F P P Z F P Z H H Q ~ ~ Q H H ",
"( ( Y Y Y ( ( ( _ _ _ _ _ _ _ _ L 3 3 j.d._ ( >.| | | | | _ _ _ / ` _ _ _ ( Y P ( P P I v 2 a p.P P ( / P P P P / / / / / / / / ",
"F F F K K K L L L K K K K L L P b 2 6 | 1.P H P U U U P P K K K F F P P P K K F V C V M 0 * a [ K K L K A K K A A K K K K K K A ",
"4 4 4 4 4 4 5 5 5 5 4 4 4 4 5 5 5 = = l a 7 6 4 4 4 4 4 2 2 4 4 4 4 4 4 5 5 5 4 4 6 5 5 * @ : d 7 5 5 5 5 5 5 7 5 5 5 5 3 5 5 5 ",
"@ @ + + + + + + @ @ + + + + + + & % + = & & & @ + + + + X + + + X + + + @ @ + + @ @ & & @ + + & @ + + + @ @ @ @ @ @ @ @ @ @ @ @ ",
"B M B M 9 X i K B B V V V V V V V V V F F F V V V H V V B N B s : * m K / P F K P P P P P P P P P F Z V B B B B B N b N B V D D ",
"@.1.' T k @ z U 4.4.4.4.1._ _ _ _ _ _ 4.r.r.e.e.e.S.0.0.0.| | / < 5 | /.).Q.K.R.e.e.e.e.e.p.u.u.v.v.v.f.f.f.v.v...| | ..0.v.v.v.",
"` T ) I a @ C _ P P P Y Y P P P Y Y Y Y Y ( ( ( / _ / / / P P B & 4 | D.8.) P Y P P P P P P P P / ) ) ) / / / / F H P P P / / / ",
"/ I / L 9 + B T P P P ( ( ( ( ( _ ( ( ( ( ( ( ( ( _ / / / / P b = 5 r.y._ H P T / Y Y ( ( ( ( ( / / Y Y P P P P F P P P P P P / ",
") T / L 9 + B U P P P Y ( Y Y Y P P P Y ( ( _ _ Y ( P Y Y Y P v & 4 _ _ P H P _ P P Y Y Y Y Y Y / / / P P P P P P P P P P P P / ",
"P I / L 9 + C U P P Y ( _ _ _ _ ( ( _ _ _ _ _ _ ( _ ( ( Y ( ( v & 5 _ >./ P P U Y Y Y Y ( ( ( ( / / / P Y P P P P P / P P P P / ",
"` T _ L 9 @ D T F P P P P ( ( ( / ( ( ( ( ( Y Y _ _ _ _ P ( ( b @ 4 | >./ / / T Y Y Y Y ( ( ( ( P P P P P Y Y ( P P P P P P P P ",
"/ L / K 3 @ H -.P P Y Y Y Y Y Y Y ( ( _ _ _ _ _ ( ( ( ( P Y ( v @ 4 | _ P H P Y P P P Y Y Y Y Y ( ( Y P Y Y ( ( ( Y P P P Y Y Y ",
"_ _ | K 9 * G R Y P I Y _ _ ( P ( ( ( / / ` ` ~ ( Y P ( P ( ( v & - =.o.Y Y Y _ Y Y Y Y / _ _ _ _ Y P P P Y T T / P P P Y ( Y P ",
"Y P ) m 2 & c [ / / / ) ) / / ~ I ( _ ( ( _ | _ / P P / P / ( m & 6 o.[ T _ Y / Y Y ( ( ( Y P P / / Y / / / / Y ) / P P P P P P ",
"/ / ) V 5 & x [ K L Y Y P P ( ( L T -.,.E E E E Y Y L Y Y _ _ V * 2 ` _ T _ P / P P P P P Y ( ( ) ) ) / ) ) ) / / / / P / ( ( _ ",
"( ) ) B 3 & x _ P P P P / / / ` W W ^ ` ` / / / ~ ~ Q Q Q ` ` C * 3 ) ( Y Y P / Y Y Y Y Y Y Y Y / P P P P P P P ( ( / P P P Y Y ",
"T / P b 8 * x T -.T P K P P K V D D H P ( ( Y I I T I T T T -.L 6 a  ._ ( / / ` / / / / ( ( ( ( _ Y Y Y Y Y Y Y Y Y Y Y Y T _ -.",
"v s b p 5 & y m f s 0 9 9 9 3 3 3 3 8 p s s s v p v v v v v v p & 4 G B B k z z B z f a a s k z B B B V V V B B m m m m m B B B ",
"2 * 2 2 * X & 2 + + + + X X X X + + + + + X + + + + + + + X + + @ @ - * 4 2 * & 4 4 * * * * * * 2 2 2 2 2 2 2 2 - * * * * * * & ",
"t : = & @ . % > r d d d e 4 4 e d d l u - & & - < < : ; ; = , , 1 , t - y t : = & * 4 h l l h u - & & & & & = = + + + @ ; , , ; ",
"S.e.| ( P P ( _ S.p.e.e.r.e.e.e.| :._ :.B @ 3 F ( ( _ | e.u.S.p.S.e.4.| r.S.u.r.( r.F.S.e.4.| | _ _ / P / / F 9 + & m T -._ _ e.",
"e.S.K.K.R.K.K.F._ _ _ _ _ _ _ _ ` T P T f @ 7 P e.r.4.4.4.4.4.4._ _ _ ( _ 4._ _ r.S.F.r._ ( ( ( _ 4.| 4.4.| P 9 # t Y 5.>._ _ r.",
"P P P Y ( ( P P P P P P P P P P / I H L 9 + 7 P ( ( P P P P P P P ( ( P P Y P P P Y Y P P P ( ( P ( P Y P / H 0 X < _ 1.Y P P ( ",
"_ ( P P P P P P P P P P P P P P H I / U 9 + 5 F P P P P P ( ( ( Y ( _ Y P P P P V P P P P ( ( Y Y Y F F F / / B X ; ) 7.Y P / ( ",
"P P P P Y Y P P P P P P P P P P ~ I / T 9 + 7 F ( _ _ _ _ _ ( ( _ _ _ ( P P P P P P Y Y ( ( Y P P Y P P P ) ) B o @ J F.>./ ( _ ",
"P P Y ( ( ( P P P P P P P P P P ` I / I 5 + a Y P Y _ _ _ ( ( ( _ | _ ( P P P P P P P P P ( ( P P P P P P P F 0 . + G S.( F P P ",
"( ( ( P P P P P P P P P P P P P ) P H L 3 + a Y P Y _ _ _ _ _ _ _ | _ ( P P P P ( ( ( ( ( ( ( P P ( P P P P H 0 . + G K.( P / P ",
"P P Y P P P P P P P P P P P P P ~ K H P 5 + i F P Y _ _ _ _ _ _ _ | _ _ ( P P V F P P Y ( ( P P P ( P P / / H 0   + ! K.P P _ ( ",
") ) ) H H H H ) _ Y Y _ _ Y Y Y Y P U U 5 @ l U P P Y ( _ _ _ _ ] ] ] ] ) ) J H P Y _ _ _ Y Y Y H / _ _ H Y Y s X & ] 1.-.( / _ ",
"Y Y P P P P P P Y P P Y Y P P P P F P P 4 + y L P / / _ _ _ _ _ _ _ _ _ _ Y Y Y V K P Y Y Y Y Y P ) / ) F H P s X = ] >.Y P ) / ",
"( ( ( P P P Y ( ( Y ( ( ( P P Y / H P P 7 @ g U P P / ) _ _ ( / Y Y Y I P Y Y Y C D / / ) / / / / / / / F P / b X : ] ( P P ) / ",
"P / / P H H P / H P / / / H H P / P K Y 7 @ 6 L P Y ( _ _ _ ( ( / / / / / / / / Z H ~ / / / P P P Y K K A K K v X 4 ` Y S P / P ",
"P / / / P P / / P P / / P P P / ( Y T T 9 @ 7 L I I Y Y ( Y P P P P / / / P P P ( ( ( ( Y Y Y Y Y Y Y Y Y Y Y n @ e [ T _ ( _ I ",
"F K K K K K K P L I Y I I I I Y P P P P a & e K P H H H J H G G Y Y Y Y Y Y J H F F F F K K K K D J D J J J J f $ t J F H H J F ",
"4 4 5 5 5 5 5 r 9 a f a i a s s r r 9 i - X = i 4 4 - - - = = = - - - - - - - - - - * - - - - - = : - : - : - & o $ - - : - t 4 ",
"+ + + + + + + + @ & = & @ & & & & & & * $ . + * @ @ + + X X X X . . . . . . . .         . . . . X X X X X X X X O o + X + X + + "
};
