/* XPM */
static char *_1a524de066349ceb616bcc4771b1802cFAjJOddPrU2CixM[] = {
/* columns rows colors chars-per-pixel */
"64 64 178 2 ",
"   c #140500",
".  c #1C0100",
"X  c #240100",
"o  c #2C0100",
"O  c #230801",
"+  c #2E0903",
"@  c #2F0008",
"#  c #330100",
"$  c #3C0101",
"%  c #310806",
"&  c #3E0906",
"*  c #350008",
"=  c #3E060B",
"-  c #360808",
";  c #390909",
":  c #340910",
">  c #440102",
",  c #4B0203",
"<  c #400807",
"1  c #4D0906",
"2  c #440309",
"3  c #4C040A",
"4  c #470B0A",
"5  c #4D0A0B",
"6  c #540202",
"7  c #5B0304",
"8  c #550905",
"9  c #5C0906",
"0  c #54030A",
"q  c #5C040A",
"w  c #53090B",
"e  c #5D0A0B",
"r  c #490810",
"t  c #570712",
"y  c #5C0410",
"u  c #520A11",
"i  c #5E0B13",
"p  c #5F1313",
"a  c #640205",
"s  c #6A0205",
"d  c #620907",
"f  c #63050A",
"g  c #6C060C",
"h  c #640A0B",
"j  c #6C0A0D",
"k  c #700205",
"l  c #72050C",
"z  c #78070C",
"x  c #740B0E",
"c  c #7B0A0E",
"v  c #64110F",
"b  c #6D120C",
"n  c #75120D",
"m  c #7A120E",
"M  c #620710",
"N  c #6A0610",
"B  c #650B12",
"V  c #6C0B12",
"C  c #6D0D1A",
"Z  c #730511",
"A  c #7C0611",
"S  c #750D12",
"D  c #7B0D13",
"F  c #710F18",
"G  c #7C0E19",
"H  c #661615",
"J  c #6D1116",
"K  c #6C151A",
"L  c #751213",
"P  c #7C1115",
"I  c #771917",
"U  c #7C1816",
"Y  c #731319",
"T  c #7D1319",
"R  c #77181E",
"E  c #7E1B1C",
"W  c #7D1321",
"Q  c #761A21",
"!  c #7D1C21",
"~  c #82060D",
"^  c #820A0E",
"/  c #820D14",
"(  c #890E16",
")  c #830E19",
"_  c #8A0E19",
"`  c #821116",
"'  c #891117",
"]  c #85121F",
"[  c #85131D",
"{  c #85161C",
"}  c #87151F",
"|  c #831319",
" . c #88101A",
".. c #88151A",
"X. c #8A121C",
"o. c #8B131C",
"O. c #8C121D",
"+. c #8D131E",
"@. c #89171F",
"#. c #8C141E",
"$. c #8D151F",
"%. c #8E141F",
"&. c #8B141D",
"*. c #811A1E",
"=. c #831A1E",
"-. c #841B1F",
";. c #831C1F",
":. c #83191D",
">. c #8A181E",
",. c #91131F",
"<. c #93141F",
"1. c #91141F",
"2. c #871421",
"3. c #841421",
"4. c #8A1621",
"5. c #8F1520",
"6. c #8E1620",
"7. c #8F1721",
"8. c #8A1724",
"9. c #8D1521",
"0. c #841B20",
"q. c #851C21",
"w. c #851E21",
"e. c #871F23",
"r. c #871D21",
"t. c #821C27",
"y. c #851D22",
"u. c #8A1B21",
"i. c #8C1821",
"p. c #8E1922",
"a. c #8C1A22",
"s. c #8B1D23",
"d. c #891F23",
"f. c #8E1A27",
"g. c #8B1C25",
"h. c #8D1E25",
"j. c #8E1F26",
"k. c #8B1C22",
"l. c #8E1E2A",
"z. c #961220",
"x. c #901721",
"c. c #951722",
"v. c #941521",
"b. c #901822",
"n. c #911923",
"m. c #901B24",
"M. c #911C25",
"N. c #951D26",
"B. c #921B24",
"V. c #991D27",
"C. c #911D2A",
"Z. c #921E2B",
"A. c #931F2C",
"S. c #931C29",
"D. c #99182A",
"F. c #872023",
"G. c #872023",
"H. c #8F2026",
"J. c #8F2027",
"K. c #8D2327",
"L. c #8C2125",
"P. c #8F2529",
"I. c #8E2229",
"U. c #922127",
"Y. c #902128",
"T. c #922028",
"R. c #912229",
"E. c #90262A",
"W. c #91272B",
"Q. c #93262B",
"!. c #972429",
"~. c #93232A",
"^. c #9B232C",
"/. c #95282D",
"(. c #9A292F",
"). c #942432",
"_. c #942931",
"`. c #A0242F",
/* pixels */
"6 7 h 7 7 d h a s g l x l g l l j j j j j g s a a 7 B 3 o X > , 2 2 2 , , , , , , , , , , > > > 7 6 6 6 6 6 7 7 6 8 , 6 d e w $ ",
"x T *.T T 0.q.q.q.s.K.P.P.P.Q.Q.F.F.F.F.q.q.;.;.i.! t.C 4 > B J | | [ 2.8.f.S.A.S.S.S.S.S.S.S.S.T.H.h.h.h.H.T.T.H.H.=.s.M.{ L 6 ",
"i.M.i. .) ) ) ) D D P T T | | | T T T D D D D D ( D [ Z , 7 4.@.A A A A ) )  . .@.@.$.6.6.b.b.b.$.$.O.O.O.$.6.v.1.v.o.,.z.( l 6 ",
"i.m. ./ A A A A D D D D P P D S T D D D D D D T ^ x  .l 6 7 c._ L L L L L L L L x x x x S L L L D D D D D D D D ) D D ) ) ) j 6 ",
"u.H.` D T P T T P D S S D D S x A A D D D D D D ` L *.S , 7 N.' c c D D D D / / ` ` ` ` ` ` ` ` T T T T T T T T T P T P | P e , ",
"s.Q.| D P S L S P P D P P P P P D D D T T D D D x b L j > 8 T.{ D D D T ` ` ) ) ) ) D D D D D D D D D D D D D D ) D T T ) D 7 > ",
"..!.| D T S P x S S D D P P P T D T T T T T T D D L P N > 6 g.| L L L L L P L S T T P P P P P L / / / / / / / /  .D | T ` P e , ",
"_ ^. .c D c P x D P P P D D P T P P P P P D D D / P G Z 3 6 8.| D D D D D G T ) G G G G D D D D P P T T T T T T T S L j j V 6 & ",
"' U.{ c P ` / ^ D S A D D A D ....` D D T T ` D / T ) D 6 7 @...D D D D D ) ` ` ) ) ) D D D D D / D T T | ` ` ) D D D G G F q , ",
"..H.T x L D D c P P L P T P T | T P S S L P D D D L D P 6 6 ..| D D D D D P P T D D D D D D D D c D P P T P D S P P D D P L q , ",
">.h.P x P D P D P P L L P T T T T T T L L T P T D L T T 8 6 | =.S S S S D D D D L L S S S D D D P P T T T T P P P L D D P L 9 , ",
"$.$.D S P D D ) D T D D D | | D ) T P P S D D ) ) P ) T 6 7 @.@.D D D D D D D D L S x D D D / P T T D D D T T T P ` / / ` L a 6 ",
",.O.A A T D ) ) )  .) ) ) [  .) ) ) | T D D ) ) / | / A 6 a v.o.) D D ) ) ) ) D L L D ( ( ) ) T T | ) ) )  .| { ' ' ) (  .D f 6 ",
",.O.D D T D T T G T | T | | | T ) | T P S D D ) / T ) A 6 d m.[ D D S D P P D S S D D ) ) D S V L P | [ [ | P Y D T ) ) D F q , ",
"| T j h d d h h h f j j j h h j f f d q 7 7 d f g B S V , 8 T V d d d d h h d 7 d f g g g d w 1 8 q h j j f 7 6 q f h f q 0 2 $ ",
"h h 6 , > > , , , , , 6 , , , , 6 6 , , , , , 6 , , 6 8 # $ d 6 , , , , , , , > , 6 6 7 6 > # o > , 6 6 6 , > $ > , , , > $ # o ",
"d d d 9 9 9 9 9 w w 3 , , > > > > # X > 7 e 8 6 7 9 d 9 7 6 6 6 d d 7 7 7 7 7 7 7 f M 6 & X X u d 9 , , 6 9 7 7 8 9 9 9 8 6 6 6 ",
"~.~.~.T.Y.H.H.s.S.m.m.f.i.6.6.6.F e 6 E h.I.I.T./././.T.h.s.H.Q.!.~.T.Y.Y.Y.Y.Q.l.l.M.3.K 4 , W /.(.T.K.Q./.Y.M.^.^.`.`.^.^.^.^.",
"c.c.c.v.1.$.O. .b.b.b.b.b.b.b.b.2.f 7 f.c.O.O.,.1.1.O.( ) (  .$.( _ _ _ (  . .O.o. ._ _ P e a D.c.V.N.M.!.^.V.c.O.$.6.6.$.$.$.$.",
" . .| ` T D D D x n n L P P P P G 6 6 0.) c D / T T D T D P D D D D S S D D P P x x c A j , 7 v.A D S S P T T ` S L L L L P T T ",
"*.*.*.E T T T L c c / / ` ` ` / S 6 6 0.| T *.| P P P T T L L S P P P L L L L L b L S D h , 7 6.T L L L L L L P D D D D ` ` | | ",
" . . . .` T D D / ) ` ' ' ` ` ` S 7 6 *.) ) ' / .. .` T T T T D | | ` T T T P P x L A A h , h c.D D S P L D D D ` ) ) `  ...@.@.",
" . . . . . .` ` P P T T T T T T x 6 6 | ( ) ' ) ) ) / D A D D ) ) ) ) D D D D D P T A ) h > f S.) c x P D D ` ) L L L L P T T T ",
"` ` ` T T T D D D ) | |  .| | ) L 6 6 E @.T T ` D T ` T T P T T T T T T T P P P S S Z G e # w ).s.T P T L P T ` ) / / / ) ' ' ' ",
"| | T T T T | | T T T T T | | | S 6 6 0.X.) T | ( ) ) ) ) ) '  .T D D D D D D D D D A D f $ 6 )._.P S T D D T T | | G D D G T T ",
"T T T T T T T T T T T T T | | | S , 6 s.6.` T T | | ` T T T T T D D D D D D D D D D S D h $ 8 Q.S.D A ) A A ) ) D D D D D D D D ",
"D D D D D D D D D D D D D D ` ` J , , F.b.` T ` P T T T T T T L T T T T D D D D D S S D h > w I.{ S S D A D ` D S S S S S S S S ",
"/ D D D A A A / / / / / ) ` ' ' L , , q.1.) ` ' ` ` | | | | T T / / / D D D D A c D D A h > 7 m.L x S L x L L x D D D D D D D D ",
"` ` ) ) ) ) ` `  . . . . . . . .V 6 6 u.c.( )  .o.o.O.o.o... . . . . . . .) ) ) S D ) A a , d v.L S P L S S L x D D D D D D D D ",
"V V V V V V V V S S S S S S S S f 6 6 ! [ D j S D D D S S S S S F F F F F F F S j V S Z 7 > q ) S S S S S S S l V V V V V V V V ",
", , , > > , , , , , , , , , , , 6 > $ i f 0 3 3 , , , , , > > > > > , , , , , > 3 3 0 0 > # > f 0 0 6 6 0 0 0 0 w 6 , , , , , w ",
"# # o o o o o # # # # # o o # # > # X $ $ # o # o X X X X X X X o o # # # # # # # # # $ o O o > # o X o # # o # $ $ # # # # $ $ ",
"j k h g 0 X 7 x g g l x x x x x S S x x x x S S x c x x g s x s & > a / / D x S D D D D D D D S S x x x g g g g j g a s j x x x ",
"d.@.E T i # e x T T T T T T T T T | | | *.*.=.q.s.s.s.s.*.| =.P & , T /.!.U.H.T.s.s.s.s.s.s.s.s.K.G.s.s.q.q.q.q.0.;.;.;.q.s.K.K.",
"T / L S y # B ` P T T T T T T P ` T T T T T | | | | T T P D P g # , T !.>.P D D D D D D D D D D D D D D P P P D S S D L D D D T ",
"D ~ x z q # j / D D D P P P D D T T D D D D D D | | D T P P P g $ 6 *.M.' c S T T T T T T T T T D D D T P P D D S D D D D D D ` ",
"G / P A q $ f c D D D D T T T T D D D D T | | | T T D D D D S s # , P ..c c D T D D D D D D D D D D D D D D S x c D D D D A A ) ",
"S / P A q # h D S D D D D T T T D D D D T ` | | | T D T T P P s $ 6 T @./ D P D T D D D D D D D T T D D D D D D D D D D D D ) ` ",
"T ' U S q # B P D D D T T T T T | | | | | | ` ` D T D T D S S s # , P  .c D P D T T D D D D D D T T T D D T T T P P D D D T D D ",
"S / L l 0 # B | D D D D D D D D D D D D D T ` ` ` ` T | T L P s # 6 T ..c D T T T T D D D D D D D D S S D D D D P S S x S D D D ",
"I P ) Z , # p / D D D D D D / / ` ` ` ) | { | D ) ) ` D S ` D k + > !  .` T P D Y Y L Y Y Y L L ) ) D D D D ) ) P D D D D D D D ",
"T T ) Z , # H O.L L L L L L P P L P T P T T T T P P P S S P P g # > E  ./ P T D / / ~ ~ / / ) ( T T D D D D T T P L D D P T T T ",
"m D ) Z 6 $ v _ D D D / / ) ' ` D ` ' ' ) ' ' _ ( / / / A ) ` z $ , { ' ( ` ` ) D D D D D D ` ` D D D D D D D D T T P L D D P ` ",
"` `  .l 6 $ h _ L L L L L L L L L L T P T T ` D L P L L L T L x $ 6 | ( / D T ) L L L L P P L L T T T T T P P P P P D c c c / ) ",
"| T P g 6 $ v ` / / D A A S S S S S x S ) ) ) / A ) ) ) | | D S 2 q T ` T T T P ) ) ) ) ) ` ` ` T T ` ` ` ` T ` D D T D ) )  .@.",
"a a e q 3 # 5 f f a a 7 7 6 6 6 7 6 6 7 q d q q 7 d d q f q 7 7 $ , B f h e h f B B f d q d d d g g g g g g g g B B B B j g g g ",
", > > > = X $ > # # o X X X X X o X X X X X O O X o X X X X X X o $ , > , $ > > > > > $ $ $ $ $ , , , , , , , , > > > > > > > $ ",
"3 < # # * . % > 0 0 0 3 3 3 2 2 0 0 t u 2 $ $ < 3 3 > > > > > 3 : = 3 > 4 & < $ > > 3 5 u u w 5 $ $ # # # # $ $ X X o # - ; ; - ",
"Y.s...` D D  .{ B.b.i.$.$.@.$.$.3.o.m / B # 6 x | |  .{ u.s.s.s.i.u.>.>.u.u.s.u. .@.i.b.$.@.@.i...| P T ` ` S 6 o $ g | ` | { $.",
">.i.s.Y.~.Y.M.M..... .| ` ` | | T ' m D i # 6 x u.>.@.@.>.u.u.>... .| | | | | | s.h.M.i...) D ` ' | T | .. .L 6 # , Y @.` | .. .",
"S A D ) ` ` ) D D D D D D D D D D / n D q # 6 S | ` D D D D D D ) ) ) D D D D T D D D D D D D T D L S L D D S 7 o 2 R @.D T ` A ",
"| T D S D D D D S S S S S S S D S / n D q o 6 D D D D D D D D D ` ` ` D D D D P S S S D L P P P / T S S A D P d X $ Y u.D D D D ",
"D D D D T T D D S S S S S D D D S / n D 0 o 0 D D T ` | | | ` ` | | | T D D D P D D P P P P D S D L S S c A P d . # Y M.' D T | ",
"T T T | | | T D x S S D D D D D G / n D 0 o 0 D D D T ` T T D D | | | T D S S S x x D P T P P D z x x S S A S 7 . o J M.) c D T ",
"D D D D S x c S S S D D D D D D G c n D 0 o q L D T | | | T T T | | T P D S S x D T T | | T T T c L P T ` ) L 7   X J M./ c L S ",
"D D T T T D D D D D D D D D D D S c b D 6 o q S D D T T T | | | =.| T P P D S x c S D D D D D T c D S S D A S 7   X K M.) ` | P ",
"D D D D S S S D P S S P P S S S G D x x 6 # 0 ) S D D D ` ` ) ) ` ` ` ` ) D D A x D ) | ) D A A S T D ) A D S a X $ Q u.D T D T ",
"P P P S S S S D ` D A D ) D A A G D x x w # w D D P T | |  . . .T T T T P P P D x S P T T P T T S T D D D D L a X $ R { c L S P ",
"P T T P D D P P D D D D D D c c G D z x w # , x x D L T T T / / L L L L L L x x j L L T T T T T P T D D D D L g O < Q ..c ` T T ",
"c D D D c c c c L L L L L L L L ) D c D q # , x D D ` ` ' ` ) / D D P P P D D D x S D D D D D A D D c A c S S s X < T _ ~ / / D ",
"D D ` ` ) ) ) ` P P T T P P P P ) ) ^ / q $ , D A A D D D D D S / / / / / / / / ) ) ) ) ) ) / / D D S ) ) D P g X 3 P _ ~ ) D A ",
"F F F F F F F F S D D D S D D D C L c S q $ 3 V F Y Y Y Y J J J S G G G G G S S F V V S S S S S C C B F F C J e o 3 C S S L V V ",
"> > , , , , > , 6 q q q q q q q r 5 6 q 3 @ = 6 > > > > > > $ $ > > > > $ $ $ $ $ $ $ $ $ $ $ > $ > $ > > > < # X * > , 2 > > , ",
"o o # # # o o # # # $ # # # $ # X o # > * X X $ # o o X X X X X . X X X . . . . . . . . . . . . X X X X X X X X . X X X X X X o "
};
