/* XPM */
static char *b8232db411114e0ddff37ab430088a26vzEN1V3lVNkyiINb[] = {
/* columns rows colors chars-per-pixel */
"64 64 162 2 ",
"   c #000906",
".  c #00060E",
"X  c #000A0E",
"o  c #030612",
"O  c #010C13",
"+  c #0B0E16",
"@  c #000719",
"#  c #010D1A",
"$  c #021016",
"%  c #091217",
"&  c #03131C",
"*  c #0A141C",
"=  c #03191E",
"-  c #091B1F",
";  c #031522",
":  c #0A1624",
">  c #031A24",
",  c #0A1C24",
"<  c #03162A",
"1  c #031E2A",
"2  c #0B1E29",
"3  c #111C24",
"4  c #111D2B",
"5  c #051D31",
"6  c #062027",
"7  c #0F2027",
"8  c #04222C",
"9  c #0C222C",
"0  c #0E292F",
"q  c #11242D",
"w  c #14292F",
"e  c #052432",
"r  c #0C2532",
"t  c #062A36",
"y  c #0D2A35",
"u  c #062238",
"i  c #062B3B",
"p  c #0D2D3B",
"a  c #122632",
"s  c #1A2636",
"d  c #132A35",
"f  c #182C37",
"g  c #132E3B",
"h  c #1B2C3A",
"j  c #07333E",
"k  c #0D313D",
"l  c #173037",
"z  c #13323E",
"x  c #19333D",
"c  c #1F383F",
"v  c #0B2E42",
"b  c #142F40",
"n  c #0E3342",
"m  c #0E3945",
"M  c #0E3548",
"N  c #143442",
"B  c #193542",
"V  c #153945",
"C  c #1D3944",
"Z  c #1F3A45",
"A  c #1F3B46",
"S  c #1E3C46",
"D  c #1E3C47",
"F  c #1A3945",
"G  c #113648",
"H  c #123749",
"J  c #133648",
"K  c #1A364A",
"L  c #13384B",
"P  c #173B49",
"I  c #13394E",
"U  c #153A49",
"Y  c #183948",
"T  c #183C4A",
"R  c #183E4B",
"E  c #1D3D48",
"W  c #1C3C49",
"Q  c #1F3D48",
"!  c #1C3E48",
"~  c #1D3D4A",
"^  c #1D3F4B",
"/  c #193E4E",
"(  c #193D4D",
")  c #1C3D4E",
"_  c #1E3F4E",
"`  c #1B3C4A",
"'  c #213542",
"]  c #203844",
"[  c #223D46",
"{  c #233E47",
"}  c #213B44",
"|  c #223748",
" . c #213B48",
".. c #203E49",
"X. c #213F49",
"o. c #203C4A",
"O. c #213F4A",
"+. c #233F4A",
"@. c #233D4C",
"#. c #233F4D",
"$. c #223D4A",
"%. c #16404C",
"&. c #17414D",
"*. c #16404E",
"=. c #1E404A",
"-. c #18424E",
";. c #19434F",
":. c #1C424D",
">. c #1F404F",
",. c #1C424F",
"<. c #1F414D",
"1. c #1C414D",
"2. c #174351",
"3. c #1E4250",
"4. c #1A4450",
"5. c #1B4551",
"6. c #1C4452",
"7. c #1C4956",
"8. c #1D4B58",
"9. c #22404B",
"0. c #25424A",
"q. c #24424D",
"w. c #24414F",
"e. c #22424D",
"r. c #2B434D",
"t. c #204150",
"y. c #224251",
"u. c #224352",
"i. c #224450",
"p. c #204651",
"a. c #234453",
"s. c #274550",
"d. c #264651",
"f. c #254552",
"g. c #274452",
"h. c #254753",
"j. c #274454",
"k. c #254657",
"l. c #264756",
"z. c #224552",
"x. c #284450",
"c. c #284651",
"v. c #2A4453",
"b. c #284555",
"n. c #294654",
"m. c #244A57",
"M. c #254957",
"N. c #254955",
"B. c #2A4852",
"V. c #2C4853",
"C. c #284855",
"Z. c #294956",
"A. c #294B57",
"S. c #2A4A55",
"D. c #214658",
"F. c #244B59",
"G. c #2A4E5C",
"H. c #2A4B5B",
"J. c #24515E",
"K. c #2C515C",
"L. c #255360",
"P. c #2E5262",
/* pixels */
"; 1 r 9 1 6 6 9 e r y p t t t t t t t t t t e e 8 8 9 = & O & ; > > > > > > 1 > < < < < < < < < 1 1 1 1 > 1 1 1 8 8 1 1 8 6 , & ",
"g z C C C C { { #.w.g.n.Z.Z.Z.Z.p.p.p.u.u.3.` ` R ^ 0.d > ; d h C F C C o.e.g.Z.k.k.k.k.n.n.n.n.k.g.g.g.g.c.B.V.v.c.w.9.o.} d 2 ",
"<.p.=.F z z z l z z B B F F F F V N N N n N N N n N ^ y ; 1  .o.l l z z N V U / %.%.%.-.-.5.5.5.` ^ ^ ^ ^ ^ o.o.#.o.C F D B r & ",
"<.p.P k k p k y z g g z N N z k N N N N n n N N M n Y t > e u.N N N n n n n N n j j j n n n n n k k p p g l l z B g z z B B r : ",
"<.m.P k z z V z B z z g z z k p N N N N N N N N I L ` g 1 e k.n k n n n N n M M V V V V V V V V N N N N z N z B B N N N N B r ; ",
"3.G.T z z l z p B z z z N N N z N N N N N N N N v N B y ; 1 M./ p N N N N G G N B B B B b b b b N z z z z z z z B p V z N z > # ",
"( H.Y N N z B l g z z z z N N N N N N N N N N n N B B r = > e.R z z N N N N n n V V V N N N N N N N N N N B z x Y N Y N N B 1 ; ",
"Y H.Y N B g B g z B B B z z N N N N N N N N N N B B x r > 8 e.V g l z z N N N V N N N n n n n n N z B N z z z z V p N t t p ; ; ",
"N N.^ z x x z l N z N N N z N ^ K B B B V B V B B B B g ; > ^ ( g l z z z z z z N N N N N N N N z z x B B C C B z g z z z x 2 & ",
"-.m.V p g z z l N N N V N N V R V N z g N N N z N N z z > > F / p k z N N N N N N N n n n N N N g z z B B z g g B z z k N z 2 & ",
"7.D.N p B B N z n N N n N N U U P N N N N N N N N N z F 8 > F <.k k N N N N N N N n n n n n N N N B B B B N z g N z n n N B 1 & ",
"2.2.n N Y B N N n N N n n P U N z z z z k k z z N N z x 8 1 R -.N n N N N N N N n n n n n N N N V N N N N N V V N z N n N B 8 ; ",
"U T N B B b B N V V V B V Y Y N z N N z z l z z k N z d ; 8 ^ R B B B B B B B B N N N N N V V N B N N B B B F K B V Y Y V B 9 ; ",
"R ` B z g g B B z B B B B C B z x x x z z z z x z B x d > 9 w.F z g g g z z g g g g g z z z g g x B C C C C x g x B C B g d 2 = ",
"N B d a 9 6 a 0 0 0 0 a a 0 9 0 7 7 7 2 , , 2 7 r d d w = 2 C p 7 2 , 2 7 7 2 , , 7 7 q q 7 2 , 2 7 q a a 2 , ; 7 9 d 8 1 2 & & ",
"9 9 ; & # # & # & & & = = & & & ; = = & & & & = & ; ; , # # 2 ; & $ # $ & & $ # # & = = = & & # & & = = = & # O O $ ; & # & # $ ",
"r r r r e e 8 8 8 1 1 < ; ; ; ; ; & O ; 8 t 1 > 8 e t e 1 > > 1 e 8 8 1 1 1 8 8 , e u < & O @ u u u < ; < 5 5 5 e e t t e e 1 1 ",
"Z.Z.Z.Z.M.g.g.g.p.p.e.e.#.#.o.o.f 9 1 C w.B.p.M.Z.S.Z.g.e.e.g.Z.Z.N.N.g.g.g.N.N.r.u.u.K h , > Y P.P.D.3.F.G.F.D.H.H.G.G.H.H.H.H.",
"<.<.^ ^ R F F P ;.-.-.<.<.<.<.e.' 2 9 +.o.o.F =.^ D F N N N F ^ F F F F F F F F C V I K h , 8 D.7.8.7.7.J.L.7.2.^ ` ` ` ` ` ` ` ",
"P T P P P N n n k k k k N N N N h = ; C z g z z z z z z z z z z z z z z z z z z l p n N a = 8 / j j j n m m m j N N N N N V V F ",
"P P P V N N k k z z B B B B B B l ; 1 { B B C C z z z N N z z l z z z z z z z l l n n N 0 = 8 T P V N k p p N V B z z z B B B F ",
"R R R F F P N N B B B B B B B B d ; 6 ] x C C x N N N N N z z z B B B N z z z z d n n N 9 = y 6.B z B B g g B B B B N B B C K K ",
"F F P P V N B B B B B B V P V P 0 = ; c c ' C C N z z z z z z z z z z z z z z z x N n B 9 # r D.z p z B B B B z z z z z B F F F ",
"B B B N B B z z N N N N m m m m d = ; } } ] c ' z N N V N z z N B B z z B B B B z p i B 2 O r F.u.N p k k k N N z z z z B B B B ",
"B B B B B N B B z z z z N N V V d = = } C x C ' V B B B B C C C z z z z z z z z g z k d 7 # 8 A.G.N p N z z z z z z z z z z z z ",
"B B B B B B B V B B N N V P F F d = ; w.^ B B x V V V V B B B B z z z z z z z z B z k z a ; e F.M.N k N N N N z N N N N z N N N ",
"N N N N N N N V B N N B N V P P h ; > e.=.P N N U U U U P V V V P N N N N N N N b p p l r ; 1 6.Y p p N p N N p n n k k k n n n ",
"n k n n n n n n B B B B V V P Y h ; ; e.<.V V U U U L U N N N N N N N N N z z z b p k z r & 1 5.N p N N p N N p n n n k n n n n ",
"N B B B N N N N B B B B B B F F s : > 9.<.V N P Y Y Y F F B B B B B B B B B z z B z z z 9 ; e 3.B B B B B B B g N N N N N N N N ",
"d d d d d d d d d d d d d d d g 4 : , } F z g d z z z g g d d d a d d d d d d a a y y 0 , # 1 z d d d d d y d r y y d d y y y y ",
"& & & & & & & = : ; ; = = ; ; ; * & & w 7 , : : = = = & & & & $ & & = = = = = & & = = & O O = > > = ; ; ; = = ; = ; ; ; ; ; ; = ",
"O O O O O O O O # O O O O O O O $ O X & O O O O O O O O O X . . X O O O # # O O O O X X X + & $ $ O O # # O O $ O O # # # # O O ",
"y t i r , X 6 p y y y y y y y y p p p p p p p p t p p t r r y 1 , & 8 n m n j k k k k k k k k k j p p t t t t t y t e e t t p p ",
"w./ / N q O 0 n F F F F F F F F F F Y ^ ^ e.e.e.u.p.u.e.o.o.9.z > ; F K.J.F.m.M.p.p.p.p.p.p.p.p.p.p.p.p.p.p.p.p.o.o.^ ^ ` e.p.p.",
"B n N g 7 $ a V z B B B B B z z z z z z N N N N N V N N z z z 8 # ; C F.2.m n N z z z z z z z z z N N N N N N z g l z z z z N V ",
"z n n y , O 0 N z z z z z z z z N N N N N N N N P P N N N B N e & , C D.L n n N N N N N N N N N k z z N N z z k g l z z z z N N ",
"B N G p , O 9 n z z z N N N N N z z z N N N V B V V N N B B z 1 # = z T n n N N N N N z N N N N N N B B B N z z d l z z z z z N ",
"g n G y , O 0 N p z z N N N N N V V V V V F F F V V N N B B z 1 & : B / n N N z N N N N N N N N N N N N N N N z z z z z N N N N ",
"N L I g , O a N z N N N N P P P N N N N N z z z V V B N B B z 8 O = z U n n N g B B B B B B B B B B z z z z B B z z z z N N N N ",
"g n G t = O a Y k N N N N N N N N N N N N N B B V V V N B B z 8 # : C R n n N B B B z z z B B B z z z z z B N B z l g g z z z k ",
"Y N N y : # d N N N N N N Y Y Y N N N N V V N N N n N N k N N e # : | ` V N N l z z z z z z z z N N N N N z z N z z k z z N N n ",
"K N N t ; # g U N N N N N n n n N N N V V V V V N n N N p N N t O :  .` V N N z N N N z z z N N N N N N z z z B N z z z N N N N ",
"V n N t ; # g P N N N N N N N N V V N V V Y V V G n N N k V V t # > C Y V N V z V N N N N N V V N N N N N N N B V V V V N n n n ",
"F N N 0 ; # y N z z z z z z z N V N N N V V N N N N N V N V B p # ; B N N z z z N N N N V V V V N N N N N B z z N N V N N n N N ",
"F N k 6 = # a N z z z z g g g d g g g z B B B B b g B B B B z d = , C z B z x x B B B B B B B B B B B z z z z z z z B N N V F Y ",
"e 8 6 > * O : 8 , , : , , > > > ; ; , , 2 6 9 9 1 1 9 9 9 7 , : $ = a 9 r r q q y r 9 8 8 8 9 9 r r r r 0 q q q 0 0 0 0 r r r r ",
"; = & & * o & & O O O O O O O O O O # # O O # # # # # O O O O O X O ; # ; & # # & & & & # & & & & & & & $ & & $ $ # # # # # # # ",
"2 > $ O + o * = 3 3 : : : * * * : , 3 : * # $ $ , * * % % % % * * * , ; 2 : * % # & , , , , , , & & $ # # O $ $ O O O $ & = = = ",
"7.5.T m n n L T 6.6.-.-.%.-.-.-.F / G B q O = r N N P R 2.3.D.D.6.2./ 2.<.3.<.<.m T 5.6.-.T T / Y P N N V N g ; O O r P m m U <.",
"2.6.D.F.F.F.D.m.R U P V N P P P z V n g q O > g e.<.` ` / / / / U U U L P U P P -.6.6.-.U N N N Y F P R P F g ; O = z R L U T R ",
"j n n n n n n n N N N N N N N N y n n g 2 O , g N N B N n n n N N N N N n z z N k N N N N N B B N N z N z z d > O = B / n m L N ",
"T V n n n n N n N N g g g N B B k n n g : O > g l l z z N N N N N N N N z z z z k k g N B B B B B N k k k z x r O & x <.n n N N ",
"N n n N N V N n g g g z z z B B l N G b : X > g N B N F F V V V U U U P N z z z z z B B B B g g N z k k k z z r O # z D.L n N P ",
"z z N N V N N z g g g g z z z z l n n b : O , g l z N N V N N N U T P N z z z z p p z B B B B g p z k k k p g > o . g k.L n N Y ",
"N N N z z z z z g l z z z z z z l k n g , O 2 g g z N B F F F F R F N z z z g p z z N V N N z z N N N N N z g 1 . . d u.n n N N ",
"z N N N N z z z z z z z z z z z l k n g > O , g z z z B N F B F R F N z z l g y p k k z z z z z g z k k k z g 1 O O x k.N N U B ",
"z z z z g g z z N z z z z z z g g l l d = O 2 z g g z z B B B B P V N N N z z p g z B B B B z z g B B N z z g 2 . # C =.n N l z ",
"N N z z p p z N N N z z z B z g z z k g : # 2 l z B B B B B F B P V V V V N N N p p N B B B B B g B N n p p g 5 . # c F j n l z ",
"N V N N z N N N N n n N N N N z B k j z 2 # 2 k N N V V V V V V n n n n n n n n t p N N V V V V N N n n k n N e O = C Y p N N N ",
"N N N N g g z N N n N N N N N N V n j B 2 # < p n N N P P V N N n n n N N N N N p k n n N n n n N n j j j k N e . ; x N p N N z ",
"B B B B B B B B N N N N B B B B B N N B 2 @ < p p z z N N N z z z z N N N z z z N B N N N N N z B N k N N N B r O , c B B B B z ",
"d d d d d d d g g g g g g d g g d p g g : # , y g g x x x h g g x x x x x x g g d a d d d d d d d a y l d d d 2 O - d h g g d a ",
"& & & & = & = = , , , , , , , 2 : , > 2 * + * = & & & & & & & # & & & & & & & & & # # & & & & & & & & = & & * O   X $ & & = & & ",
"O # # # # # # # O # $ # # # # $ # # O & + o # X # # O O O O O O . . X O O O X X O . . . O O X . O X . O X . o . X X . O O O O O "
};
